;FLAVOR:Marlin
;TIME:782
;Filament used: 0.119421m
;Layer height: 0.12
;MINX:101.5
;MINY:104.512
;MINZ:0.12
;MAXX:133.5
;MAXY:130.487
;MAXZ:11.4
;Generated with Cura_SteamEngine 4.9.0
M140 S50
M105
M190 S50
M104 S200
M105
M109 S200
M82 ;absolute extrusion mode
; Ender 3 Custom Start G-code
G92 E0 ; Reset Extruder
G28 ; Home all axes
G1 Z2.0 F3000 ; Move Z Axis up little to prevent scratching of Heat Bed
G1 X0.1 Y20 Z0.3 F5000.0 ; Move to start position
G1 X0.1 Y200.0 Z0.3 F1500.0 E15 ; Draw the first line
G1 X0.4 Y200.0 Z0.3 F5000.0 ; Move to side a little
G1 X0.4 Y20 Z0.3 F1500.0 E30 ; Draw the second line
G92 E0 ; Reset Extruder
G1 Z2.0 F3000 ; Move Z Axis up little to prevent scratching of Heat Bed
G1 X5 Y20 Z0.3 F5000.0 ; Move over to prevent blob squish
G92 E0
G92 E0
G1 F2700 E-5
;LAYER_COUNT:95
;LAYER:0
M107
G0 F6000 X104.696 Y107.779 Z0.12
;TYPE:SKIRT
G1 F2700 E0
G1 F1200 X105.384 Y107.141 E0.01872
G1 X106.124 Y106.565 E0.03744
G1 X106.91 Y106.053 E0.05616
G1 X107.737 Y105.611 E0.07487
G1 X108.599 Y105.24 E0.0936
G1 X109.489 Y104.945 E0.11231
G1 X110.401 Y104.726 E0.13103
G1 X111.328 Y104.586 E0.14974
G1 X112.186 Y104.527 E0.1669
G1 X112.492 Y104.518 E0.17301
G1 X112.814 Y104.513 E0.17944
G1 X121.787 Y104.512 E0.3585
G1 X122.647 Y104.523 E0.37566
G1 X123.583 Y104.576 E0.39437
G1 X124.511 Y104.709 E0.41308
G1 X125.425 Y104.921 E0.43181
G1 X126.318 Y105.209 E0.45053
G1 X127.182 Y105.573 E0.46924
G1 X128.013 Y106.009 E0.48797
G1 X128.803 Y106.514 E0.50668
G1 X129.547 Y107.084 E0.52538
G1 X130.24 Y107.716 E0.5441
G1 X130.877 Y108.405 E0.56283
G1 X131.453 Y109.145 E0.58154
G1 X131.964 Y109.932 E0.60026
G1 X132.405 Y110.759 E0.61897
G1 X132.775 Y111.621 E0.63769
G1 X133.07 Y112.511 E0.6564
G1 X133.288 Y113.423 E0.67511
G1 X133.427 Y114.351 E0.69384
G1 X133.485 Y115.197 E0.71076
G1 X133.495 Y115.535 E0.71751
G1 X133.5 Y115.86 E0.724
G1 X133.499 Y118.887 E0.7844
G1 X133.49 Y119.614 E0.79891
G1 X133.439 Y120.551 E0.81764
G1 X133.307 Y121.479 E0.83634
G1 X133.098 Y122.393 E0.85505
G1 X132.811 Y123.286 E0.87377
G1 X132.449 Y124.152 E0.8925
G1 X132.015 Y124.983 E0.91121
G1 X131.511 Y125.774 E0.92993
G1 X130.942 Y126.519 E0.94864
G1 X130.311 Y127.214 E0.96737
G1 X129.624 Y127.852 E0.98608
G1 X128.885 Y128.429 E1.00479
G1 X128.099 Y128.941 E1.02351
G1 X127.273 Y129.384 E1.04222
G1 X126.411 Y129.756 E1.06095
G1 X125.522 Y130.052 E1.07965
G1 X124.61 Y130.272 E1.09837
G1 X123.683 Y130.413 E1.11708
G1 X122.798 Y130.474 E1.13479
G1 X122.476 Y130.483 E1.14122
G1 X122.17 Y130.487 E1.14732
G1 X113.053 Y130.487 E1.32926
G1 X112.363 Y130.477 E1.34303
G1 X111.426 Y130.423 E1.36176
G1 X110.498 Y130.29 E1.38047
G1 X109.584 Y130.078 E1.3992
G1 X108.692 Y129.79 E1.4179
G1 X107.827 Y129.426 E1.43663
G1 X106.997 Y128.99 E1.45534
G1 X106.207 Y128.485 E1.47405
G1 X105.463 Y127.914 E1.49277
G1 X104.77 Y127.282 E1.51148
G1 X104.133 Y126.593 E1.53021
G1 X103.558 Y125.853 E1.54891
G1 X103.156 Y125.247 E1.56342
G1 X102.697 Y124.429 E1.58214
G1 X102.309 Y123.575 E1.60086
G1 X101.995 Y122.691 E1.61958
G1 X101.758 Y121.784 E1.63829
G1 X101.599 Y120.86 E1.657
G1 X101.513 Y119.752 E1.67918
G1 X101.504 Y119.416 E1.68588
G1 X101.5 Y119.121 E1.69177
G1 X101.501 Y116.049 E1.75308
G1 X101.51 Y115.375 E1.76653
G1 X101.562 Y114.439 E1.78524
G1 X101.695 Y113.51 E1.80396
G1 X101.905 Y112.596 E1.82268
G1 X102.193 Y111.704 E1.84139
G1 X102.556 Y110.839 E1.86011
G1 X102.991 Y110.008 E1.87882
G1 X103.495 Y109.217 E1.89754
G1 X104.065 Y108.472 E1.91626
G1 X104.696 Y107.779 E1.93496
G0 F6000 X105.088 Y107.953
G1 F1200 X105.773 Y107.338 E1.95334
G1 X106.508 Y106.784 E1.9717
G1 X107.289 Y106.296 E1.99008
G1 X108.11 Y105.878 E2.00847
G1 X108.963 Y105.533 E2.02683
G1 X109.843 Y105.263 E2.0452
G1 X110.743 Y105.07 E2.06357
G1 X111.657 Y104.956 E2.08195
G1 X112.197 Y104.927 E2.09274
G1 X112.503 Y104.918 E2.09885
G1 X112.814 Y104.913 E2.10506
G1 X121.787 Y104.912 E2.28412
G1 X122.641 Y104.923 E2.30117
G1 X123.56 Y104.976 E2.31954
G1 X124.471 Y105.109 E2.33791
G1 X125.367 Y105.32 E2.35628
G1 X126.242 Y105.608 E2.37466
G1 X127.088 Y105.971 E2.39303
G1 X127.899 Y106.406 E2.4114
G1 X128.67 Y106.91 E2.42978
G1 X129.394 Y107.478 E2.44814
G1 X130.066 Y108.108 E2.46653
G1 X130.68 Y108.793 E2.48488
G1 X131.233 Y109.529 E2.50326
G1 X131.72 Y110.311 E2.52164
G1 X132.138 Y111.131 E2.54001
G1 X132.482 Y111.985 E2.55838
G1 X132.752 Y112.865 E2.57675
G1 X132.943 Y113.766 E2.59513
G1 X133.056 Y114.679 E2.61349
G1 X133.085 Y115.209 E2.62408
G1 X133.095 Y115.547 E2.63083
G1 X133.1 Y115.86 E2.63708
G1 X133.099 Y118.882 E2.69738
G1 X133.09 Y119.609 E2.71189
G1 X133.039 Y120.528 E2.73026
G1 X132.908 Y121.44 E2.74865
G1 X132.698 Y122.336 E2.76701
G1 X132.412 Y123.211 E2.78538
G1 X132.051 Y124.058 E2.80376
G1 X131.617 Y124.87 E2.82213
G1 X131.115 Y125.642 E2.84051
G1 X130.547 Y126.367 E2.85889
G1 X129.919 Y127.04 E2.87726
G1 X129.235 Y127.656 E2.89563
G1 X128.5 Y128.21 E2.91399
G1 X127.72 Y128.699 E2.93237
G1 X126.9 Y129.118 E2.95074
G1 X126.047 Y129.464 E2.96911
G1 X125.167 Y129.735 E2.98749
G1 X124.267 Y129.928 E3.00586
G1 X123.353 Y130.043 E3.02424
G1 X122.787 Y130.074 E3.03555
G1 X122.465 Y130.083 E3.04198
G1 X122.17 Y130.087 E3.04787
G1 X113.058 Y130.087 E3.22971
G1 X112.368 Y130.077 E3.24348
G1 X111.449 Y130.024 E3.26185
G1 X110.538 Y129.891 E3.28022
G1 X109.642 Y129.679 E3.2986
G1 X108.768 Y129.391 E3.31696
G1 X107.922 Y129.028 E3.33533
G1 X107.111 Y128.593 E3.3537
G1 X106.34 Y128.089 E3.37208
G1 X105.616 Y127.52 E3.39046
G1 X104.944 Y126.89 E3.40884
G1 X104.33 Y126.205 E3.4272
G1 X103.777 Y125.469 E3.44557
G1 X103.496 Y125.036 E3.45587
G1 X103.046 Y124.233 E3.47424
G1 X102.667 Y123.394 E3.49261
G1 X102.363 Y122.525 E3.51098
G1 X102.135 Y121.633 E3.52936
G1 X101.985 Y120.725 E3.54772
G1 X101.913 Y119.741 E3.56741
G1 X101.904 Y119.405 E3.57412
G1 X101.9 Y119.121 E3.57979
G1 X101.901 Y116.054 E3.64099
G1 X101.91 Y115.38 E3.65444
G1 X101.962 Y114.461 E3.67281
G1 X102.094 Y113.55 E3.69118
G1 X102.304 Y112.654 E3.70955
G1 X102.592 Y111.779 E3.72793
G1 X102.954 Y110.933 E3.74629
G1 X103.388 Y110.121 E3.76467
G1 X103.891 Y109.35 E3.78304
G1 X104.459 Y108.625 E3.80142
G1 X105.088 Y107.953 E3.81979
G0 F6000 X105.48 Y108.131
G1 F1200 X106.161 Y107.538 E3.83781
G1 X106.892 Y107.008 E3.85583
G1 X107.667 Y106.544 E3.87385
G1 X108.48 Y106.151 E3.89187
G1 X109.325 Y105.832 E3.9099
G1 X110.194 Y105.588 E3.92791
G1 X111.082 Y105.422 E3.94594
G1 X112.209 Y105.326 E3.96851
G1 X112.515 Y105.317 E3.97462
G1 X112.814 Y105.313 E3.98059
G1 X121.787 Y105.312 E4.15965
G1 X122.635 Y105.323 E4.17658
G1 X123.537 Y105.376 E4.19461
G1 X124.43 Y105.508 E4.21262
G1 X125.308 Y105.719 E4.23064
G1 X126.164 Y106.007 E4.24866
G1 X126.992 Y106.369 E4.2667
G1 X127.784 Y106.803 E4.28472
G1 X128.534 Y107.306 E4.30274
G1 X129.237 Y107.872 E4.32075
G1 X129.887 Y108.499 E4.33878
G1 X130.479 Y109.181 E4.3568
G1 X131.009 Y109.913 E4.37483
G1 X131.472 Y110.688 E4.39285
G1 X131.864 Y111.502 E4.41088
G1 X132.183 Y112.346 E4.42889
G1 X132.426 Y113.216 E4.44691
G1 X132.591 Y114.104 E4.46494
G1 X132.686 Y115.22 E4.48729
G1 X132.696 Y115.558 E4.49404
G1 X132.7 Y115.86 E4.50006
G1 X132.699 Y118.877 E4.56027
G1 X132.69 Y119.604 E4.57478
G1 X132.639 Y120.506 E4.59281
G1 X132.508 Y121.4 E4.61084
G1 X132.299 Y122.278 E4.62885
G1 X132.013 Y123.135 E4.64688
G1 X131.652 Y123.963 E4.66491
G1 X131.22 Y124.755 E4.68291
G1 X130.719 Y125.507 E4.70094
G1 X130.153 Y126.211 E4.71897
G1 X129.528 Y126.862 E4.73698
G1 X128.847 Y127.456 E4.75501
G1 X128.116 Y127.987 E4.77304
G1 X127.342 Y128.451 E4.79105
G1 X126.529 Y128.845 E4.80908
G1 X125.685 Y129.165 E4.82709
G1 X124.815 Y129.41 E4.84513
G1 X123.928 Y129.576 E4.86314
G1 X122.776 Y129.674 E4.88621
G1 X122.454 Y129.683 E4.89264
G1 X122.17 Y129.687 E4.89831
G1 X113.064 Y129.687 E5.08003
G1 X112.374 Y129.677 E5.0938
G1 X111.473 Y129.624 E5.11181
G1 X110.579 Y129.491 E5.12985
G1 X109.701 Y129.28 E5.14787
G1 X108.845 Y128.992 E5.16589
G1 X108.018 Y128.63 E5.18391
G1 X107.226 Y128.196 E5.20193
G1 X106.476 Y127.693 E5.21995
G1 X105.773 Y127.126 E5.23797
G1 X105.123 Y126.499 E5.256
G1 X104.531 Y125.817 E5.27402
G1 X103.849 Y124.847 E5.29768
G1 X103.395 Y124.038 E5.31619
G1 X103.026 Y123.214 E5.33421
G1 X102.731 Y122.36 E5.35224
G1 X102.512 Y121.484 E5.37026
G1 X102.372 Y120.592 E5.38828
G1 X102.313 Y119.73 E5.40552
G1 X102.304 Y119.394 E5.41223
G1 X102.3 Y119.121 E5.41768
G1 X102.301 Y116.06 E5.47877
G1 X102.31 Y115.386 E5.49222
G1 X102.362 Y114.484 E5.51025
G1 X102.494 Y113.591 E5.52826
G1 X102.704 Y112.712 E5.5463
G1 X102.991 Y111.856 E5.56431
G1 X103.352 Y111.029 E5.58232
G1 X103.785 Y110.236 E5.60035
G1 X104.287 Y109.485 E5.61838
G1 X104.853 Y108.782 E5.63639
G1 X105.48 Y108.131 E5.65443
G1 F2700 E0.65443
;MESH:prototype v3-5.STL
G0 F6000 X112.088 Y115.102
G0 X112.914 Y115.927
G0 X113.5 Y118.488
;TYPE:WALL-INNER
G1 F2700 E5.65443
G1 F1200 X113.5 Y118.289 E5.6584
G1 X113.5 Y116.513 E5.69384
G1 X121.301 Y116.512 E5.84952
G1 X121.5 Y116.512 E5.85349
G1 X121.5 Y116.711 E5.85606
G1 X121.5 Y118.487 E5.8915
G1 X113.699 Y118.488 E6.04718
G1 X113.5 Y118.488 E6.04975
G0 F6000 X113.1 Y118.888
G1 F1200 X113.1 Y118.689 E6.05372
G1 X113.1 Y116.113 E6.10513
G1 X121.701 Y116.112 E6.27677
G1 X121.9 Y116.112 E6.28074
G1 X121.9 Y116.311 E6.28331
G1 X121.9 Y118.887 E6.33471
G1 X113.299 Y118.888 E6.50636
G1 X113.1 Y118.888 E6.50893
G0 F6000 X112.7 Y119.288
;TYPE:WALL-OUTER
G1 F1200 X112.7 Y115.713 E6.58027
G1 X122.3 Y115.712 E6.77185
G1 X122.3 Y119.287 E6.84319
G1 X112.7 Y119.288 E7.03477
G0 F6000 X112.97 Y119.018
G0 X113.61 Y118.098
G0 X113.89 Y118.098
;TYPE:SKIN
G1 F1200 X113.89 Y116.903 E7.05862
G1 X121.11 Y116.902 E7.2027
G1 X121.11 Y118.097 E7.22655
G1 X113.89 Y118.098 E7.37063
G0 F6000 X114.542 Y117.936
G1 F1200 X114.049 Y117.444 E7.38453
G0 F6000 X114.233 Y117.062
G1 F1200 X115.108 Y117.936 E7.40921
G0 F6000 X115.674 Y117.936
G1 F1200 X114.799 Y117.062 E7.43389
G0 F6000 X115.365 Y117.062
G1 F1200 X116.239 Y117.936 E7.45856
G0 F6000 X116.805 Y117.936
G1 F1200 X115.93 Y117.062 E7.48324
G0 F6000 X116.496 Y117.062
G1 F1200 X117.371 Y117.936 E7.50792
G0 F6000 X117.936 Y117.936
G1 F1200 X117.062 Y117.062 E7.53258
G0 F6000 X117.627 Y117.062
G1 F1200 X118.502 Y117.936 E7.55726
G0 F6000 X119.068 Y117.936
G1 F1200 X118.193 Y117.062 E7.58194
G0 F6000 X118.759 Y117.062
G1 F1200 X119.633 Y117.936 E7.60661
G0 F6000 X120.199 Y117.936
G1 F1200 X119.324 Y117.062 E7.63129
G0 F6000 X119.89 Y117.062
G1 F1200 X120.765 Y117.936 E7.65597
G0 F6000 X120.949 Y117.555
G1 F1200 X120.456 Y117.062 E7.66988
G0 F6000 X120.456 Y116.322
;MESH:NONMESH
G0 F300 X120.456 Y116.322 Z0.24
G0 F6000 X113.682 Y116.695
G0 X113.5 Y118.634
;TIME_ELAPSED:26.329085
;LAYER:1
M106 S85
;TYPE:WALL-INNER
;MESH:prototype v3-5.STL
G1 F662.6 X113.5 Y118.435 E7.67386
G1 X113.5 Y116.367 E7.71512
G1 X121.301 Y116.366 E7.8708
G1 X121.5 Y116.366 E7.87477
G1 X121.5 Y116.565 E7.87734
G1 X121.5 Y118.633 E7.91861
G1 X113.699 Y118.634 E8.07429
G1 X113.5 Y118.634 E8.07686
G0 F7500 X113.1 Y119.034
G1 F662.6 X113.1 Y118.835 E8.08083
G1 X113.1 Y115.967 E8.13806
G1 X121.701 Y115.966 E8.30971
G1 X121.9 Y115.966 E8.31368
G1 X121.9 Y116.165 E8.31625
G1 X121.9 Y119.033 E8.37348
G1 X113.299 Y119.034 E8.54512
G1 X113.1 Y119.034 E8.54769
G0 F7500 X112.7 Y119.434
;TYPE:WALL-OUTER
G1 F662.6 X112.7 Y115.567 E8.62486
G1 X122.3 Y115.566 E8.81644
G1 X122.3 Y119.433 E8.89361
G1 X112.7 Y119.434 E9.08519
G0 F7500 X112.97 Y119.164
G0 X113.61 Y118.244
G0 X113.89 Y118.244
;TYPE:SKIN
G1 F662.6 X113.89 Y116.757 E9.11486
G1 X121.11 Y116.756 E9.25895
G1 X121.11 Y118.243 E9.28862
G1 X113.89 Y118.244 E9.4327
G0 F7500 X114.049 Y117.315
G1 F662.6 X114.449 Y116.915 E9.44399
G0 F7500 X115.015 Y116.915
G1 F662.6 X114.049 Y117.881 E9.47126
G0 F7500 X114.413 Y118.083
G1 F662.6 X115.58 Y116.915 E9.50421
G0 F7500 X116.146 Y116.915
G1 F662.6 X114.979 Y118.083 E9.53715
G0 F7500 X115.544 Y118.083
G1 F662.6 X116.712 Y116.915 E9.57012
G0 F7500 X117.277 Y116.915
G1 F662.6 X116.11 Y118.083 E9.60307
G0 F7500 X116.676 Y118.083
G1 F662.6 X117.843 Y116.915 E9.63602
G0 F7500 X118.409 Y116.915
G1 F662.6 X117.241 Y118.083 E9.66898
G0 F7500 X117.807 Y118.083
G1 F662.6 X118.974 Y116.915 E9.70193
G0 F7500 X119.54 Y116.915
G1 F662.6 X118.373 Y118.083 E9.73488
G0 F7500 X118.938 Y118.083
G1 F662.6 X120.106 Y116.915 E9.76784
G0 F7500 X120.672 Y116.915
G1 F662.6 X119.504 Y118.083 E9.80081
G0 F7500 X120.07 Y118.083
G1 F662.6 X120.949 Y117.204 E9.82561
G0 F7500 X120.949 Y117.77
G1 F662.6 X120.635 Y118.083 E9.83446
G0 F7500 X120.635 Y118.824
;MESH:NONMESH
G0 F300 X120.635 Y118.824 Z0.36
G0 F7500 X113.5 Y118.708
;TIME_ELAPSED:37.648361
;LAYER:2
M106 S170
;TYPE:WALL-INNER
;MESH:prototype v3-5.STL
G1 F684.1 X113.5 Y118.509 E9.83843
G1 X113.5 Y116.293 E9.88265
G1 X121.301 Y116.292 E10.03833
G1 X121.5 Y116.292 E10.0423
G1 X121.5 Y116.491 E10.04487
G1 X121.5 Y118.707 E10.0891
G1 X113.699 Y118.708 E10.24477
G1 X113.5 Y118.708 E10.24734
G0 F9000 X113.1 Y119.108
G1 F684.1 X113.1 Y118.909 E10.25131
G1 X113.1 Y115.893 E10.3115
G1 X121.701 Y115.892 E10.48314
G1 X121.9 Y115.892 E10.48711
G1 X121.9 Y116.091 E10.48968
G1 X121.9 Y119.107 E10.54987
G1 X113.299 Y119.108 E10.72151
G1 X113.1 Y119.108 E10.72408
G0 F9000 X112.7 Y119.508
;TYPE:WALL-OUTER
G1 F684.1 X112.7 Y115.493 E10.80421
G1 X122.3 Y115.492 E10.99579
G1 X122.3 Y119.507 E11.07591
G1 X112.7 Y119.508 E11.26749
G0 F9000 X112.97 Y119.238
G0 X113.61 Y118.318
G0 X113.89 Y118.318
;TYPE:SKIN
G1 F684.1 X113.89 Y116.683 E11.30012
G1 X121.11 Y116.682 E11.4442
G1 X121.11 Y118.317 E11.47683
G1 X113.89 Y118.318 E11.62091
G0 F9000 X114.197 Y118.156
G1 F684.1 X114.049 Y118.009 E11.62507
G0 F9000 X114.049 Y117.444
G1 F684.1 X114.762 Y118.156 E11.64518
G0 F9000 X115.328 Y118.156
G1 F684.1 X114.049 Y116.878 E11.68126
G0 F9000 X114.579 Y116.842
G1 F684.1 X115.894 Y118.156 E11.71836
G0 F9000 X116.459 Y118.156
G1 F684.1 X115.145 Y116.842 E11.75544
G0 F9000 X115.71 Y116.842
G1 F684.1 X117.025 Y118.156 E11.79254
G0 F9000 X117.591 Y118.156
G1 F684.1 X116.276 Y116.842 E11.82964
G0 F9000 X116.842 Y116.842
G1 F684.1 X118.156 Y118.156 E11.86672
G0 F9000 X118.722 Y118.156
G1 F684.1 X117.408 Y116.842 E11.90381
G0 F9000 X117.973 Y116.842
G1 F684.1 X119.288 Y118.156 E11.94091
G0 F9000 X119.853 Y118.156
G1 F684.1 X118.539 Y116.842 E11.97799
G0 F9000 X119.105 Y116.842
G1 F684.1 X120.419 Y118.156 E12.01507
G0 F9000 X120.949 Y118.12
G1 F684.1 X119.67 Y116.842 E12.05116
G0 F9000 X120.236 Y116.842
G1 F684.1 X120.949 Y117.555 E12.07128
G0 F9000 X120.949 Y116.989
G1 F684.1 X120.802 Y116.842 E12.07543
G0 F9000 X120.802 Y116.102
;MESH:NONMESH
G0 F300 X120.802 Y116.102 Z0.48
G0 F9000 X113.682 Y116.475
G0 X113.5 Y118.744
;TIME_ELAPSED:49.157997
;LAYER:3
M106 S255
;TYPE:WALL-INNER
;MESH:prototype v3-5.STL
G1 F694.9 X113.5 Y118.545 E12.0794
G1 X113.5 Y116.257 E12.12506
G1 X121.301 Y116.256 E12.28074
G1 X121.5 Y116.256 E12.28471
G1 X121.5 Y116.455 E12.28728
G1 X121.5 Y118.743 E12.33294
G1 X113.699 Y118.744 E12.48861
G1 X113.5 Y118.744 E12.49118
G0 F9000 X113.1 Y119.144
G1 F694.9 X113.1 Y118.945 E12.49515
G1 X113.1 Y115.857 E12.55678
G1 X121.701 Y115.856 E12.72842
G1 X121.9 Y115.856 E12.73239
G1 X121.9 Y116.055 E12.73496
G1 X121.9 Y119.143 E12.79659
G1 X113.299 Y119.144 E12.96823
G1 X113.1 Y119.144 E12.9708
G0 F9000 X112.7 Y119.544
;TYPE:WALL-OUTER
G1 F694.9 X112.7 Y115.457 E13.05236
G1 X122.3 Y115.456 E13.24394
G1 X122.3 Y119.543 E13.3255
G1 X112.7 Y119.544 E13.51707
G0 F9000 X112.97 Y119.274
G0 X113.61 Y118.354
G0 X113.89 Y118.354
;TYPE:SKIN
G1 F694.9 X113.89 Y116.647 E13.55114
